X:1
T:Title
%%score ( 1 2 ) 3
L:1/8
Q:1/4=90
M:4/4
K:D
V:1 treble nm="Strings 1, Soprano"
V:2 treble 
V:3 bass nm="Strings 1, Bass"
V:1
 z4 z2 z D | [DF]2 [DF][DF] [DF]2 D[DF] | [FA]2 [FA][FA] [FA]3 [FA] | %3
w: 1.~Far~|down~ o'er~ the~ ag es~ a~|prom ise~ di vine~ De|
 [Fd]2 [Gc][GB] [FA]2 [DF][DA] | [DA]2 [CG][DF] [CE]3 D | [DF]2 [DF][DF] [DF]2 D[DF] | %6
w: scend ed~ to~ us~ in~ the~|full ness~ of~ time�~ A~|seed~ should~ ap pear~ in~ the~|
 [FA]2 [Fd]A [GB]3 [GB] | [Gd]2 [Gc][GB] [DA] [Dd]2 D | [DF]2 [CE][CE] D3 [FA] | %9
w: stars~ of~ the~ heav'n,~ And~|they~ should~ in her it~ a~|land~ to~ be~ giv'n.~ *|
 [Fd]2 [=Fd][Fd] [^Fd]3 [FA] | [GB][Bd][Ac][GB] [FA]3 [FA] | [FA][EG][EG][^DF] [EG]3 [GB] | %12
w: |||
 [GB][FA][FA][=F^G] [^FA]3 [FA] | [Fd]2 [Gd][Gd] [Ad]3 [Ad] | ed[Gd][GB] [FA]3 D | %15
w: |||
 [DF]2 [DF][DF] [GB] [FA]2 D | [DF]2 [CE][CE] [A,D]4 |] %17
w: ||
V:2
 x8 | x8 | x8 | x8 | x8 | x8 | x8 | x8 | x8 | x8 | x8 | x8 | x8 | x8 | G2 z2 z4 | x8 | x8 |] %17
V:3
 z4 z2 z [D,F,] | [D,A,]2 [D,A,][D,A,] [D,A,]2 [D,F,][D,A,] | [D,D]2 [D,D][D,D] [D,D]3 [D,A,] | %3
 [D,A,]2 [D,B,][D,C] [D,D]2 [D,A,][F,A,] | [F,A,]2 [E,A,][D,A,] [A,,A,]3 [D,F,] | %5
 [D,A,]2 [D,A,][D,A,] [D,A,]2 [D,F,][D,A,] | [D,A,]2 [D,A,][F,D] [G,D]3 [G,D] | %7
 [G,B,]2 [G,B,][G,D] [F,D] [F,A,]2 [^G,B,] | A,2 [A,,G,][A,,G,] [D,F,]3 [D,A,] | %9
 [D,A,]2 [D,^G,][D,G,] [D,A,]3 [D,D] | [G,D]2 [G,D][G,D] [D,D]3 [D,A,] | %11
 [A,,A,]2 [A,,A,][A,,A,] [A,,A,]3 [A,,C] | [D,D][D,D][D,D][D,D] [D,D]3 [D,D] | %13
 [D,A,]2 [E,A,][E,A,] [F,A,]3 [F,=C] | [G,B,]2 [G,D][G,D] [D,D]3 [D,F,] | %15
 [D,A,]2 [D,A,][D,A,] [D,D] [D,D]2 [B,,^G,] | [A,,A,]2 [A,,G,][A,,G,] [D,F,]4 |] %17

